X:1
T: The Barefoot Boy
C:
R:Jig
Q:180
K:G
M:6/8
L:1/16
E2|D2G2G2 A4G2|F2D2D2 F2E2F2|D2G2G2 A4G2|A2d2d2 c2A2F2|D2G2G2 A4G2|F2D2D2 F2G2A2|B2d2B2 c2A2F2|A2G2G2 G4E2|
D2G2G2 A4G2|F2D2D2 F2E2F2|D2G2G2 A4G2|A2d2d2 c2A2F2|D2G2G2 A4G2|F2D2D2 F2G2A2|B2d2B2 c2A2F2|A2G2G2 G4c2|
B4B2 c2A2A2|B2A2G2 F2G2A2|B2d2B2 c2A2c2|B2G2B2 c4A2|B4B2 c2A2A2|B2A2G2 F2G2A2|B2d2B2 c2A2F2|A2G2G2 G4c2|
B4B2 c2A2A2|B2A2G2 F2G2A2|B2d2B2 c2A2c2|B2G2B2 c4A2|G2B2d2 g2f2e2|d2e2c2 B2c2d2|e2c2A2 F2G2A2|B2G2G2 G4||
